packages/core/src/svgs/fra.svg

<svg width="24" height="24" viewBox="0 0 24 24" fill="none" xmlns="http://www.w3.org/2000/svg">
<g clip-path="url(#clip0_31_10465)">
<path d="M0 0H24V24H0V0Z" fill="#7733FF"/>
<path d="M8.92718 8.3873C8.93145 8.40514 8.93948 8.42186 8.95074 8.43633C8.962 8.45081 8.97622 8.4627 8.99246 8.47123C9.0087 8.47975 9.02657 8.48471 9.04488 8.48575C9.06318 8.4868 9.0815 8.48392 9.09861 8.47731L15.3858 6.8573C15.5358 6.82302 15.5186 6.61302 15.36 6.60016L8.46004 6.00016C8.36147 5.99588 8.28861 6.0773 8.31432 6.16302L8.92718 8.39159V8.3873ZM9.55718 12.3473L8.64004 9.05159L8.52004 8.62302L8.02718 6.87016C7.99289 6.74159 7.80432 6.74159 7.76575 6.87016L6.00004 13.1873C5.97432 13.2859 6.06432 13.3759 6.17147 13.3502L9.45861 12.5059C9.52718 12.493 9.57004 12.4202 9.55289 12.3473H9.55718ZM16.6886 6.98159C16.8815 6.93016 17.0958 7.01588 17.1986 7.18302L18.84 9.92588C18.8829 9.99445 18.8443 10.093 18.7543 10.1187L10.1743 12.3173C10.1572 12.3239 10.1389 12.3268 10.1206 12.3258C10.1023 12.3247 10.0844 12.3198 10.0682 12.3112C10.0519 12.3027 10.0377 12.2908 10.0265 12.2763C10.0152 12.2619 10.0072 12.2451 10.0029 12.2273L9.12432 9.06445C9.09861 8.99159 9.14147 8.91873 9.21861 8.90159L16.6886 6.98159ZM9.74575 13.0287C9.74099 13.0113 9.73261 12.995 9.72114 12.981C9.70967 12.967 9.69538 12.9556 9.6792 12.9475C9.66302 12.9395 9.64532 12.9349 9.62725 12.9341C9.60917 12.9333 9.59114 12.9364 9.57432 12.943L6.28718 13.7873C6.18861 13.8087 6.15004 13.9373 6.22289 14.0016L11.0572 18.6859C11.16 18.7802 11.3229 18.6902 11.2929 18.5573L9.75004 13.033L9.74575 13.0287ZM10.2858 12.7502L18.4715 10.6416C18.6043 10.6116 18.6986 10.753 18.6172 10.8559L12.06 18.8102C11.9915 18.8959 11.8543 18.8616 11.82 18.7587L10.1915 12.913C10.1658 12.8444 10.2129 12.7716 10.2858 12.7502Z" fill="white"/>
</g>
<defs>
<clipPath id="clip0_31_10465">
<rect width="24" height="24" fill="white"/>
</clipPath>
</defs>
</svg>

<svg xmlns="http://www.w3.org/2000/svg" width="24" height="24" fill="none" viewBox="0 0 24 24"><g clip-path="url(#a)"><path fill="#73F" d="M0 0h24v24H0z"/><path fill="#fff" d="M8.927 8.387a.13.13 0 0 0 .172.09l6.287-1.62c.15-.034.133-.244-.026-.257L8.46 6c-.099-.004-.171.077-.146.163l.613 2.229zm.63 3.96L8.64 9.052l-.12-.429-.493-1.753c-.034-.128-.223-.128-.261 0L6 13.187c-.026.099.064.189.171.163l3.288-.844c.068-.013.111-.086.094-.159zm7.132-5.365a.47.47 0 0 1 .51.201l1.641 2.743c.043.068.004.167-.086.193l-8.58 2.198a.13.13 0 0 1-.106-.006.13.13 0 0 1-.065-.084l-.879-3.163c-.025-.072.017-.145.095-.162zm-6.943 6.047a.13.13 0 0 0-.172-.086l-3.287.844c-.098.022-.137.15-.064.215l4.834 4.684c.103.094.266.004.236-.129L9.75 13.033zm.54-.279 8.185-2.108c.133-.03.228.111.146.214L12.06 18.81c-.069.086-.206.052-.24-.051l-1.629-5.846c-.025-.069.022-.141.095-.163"/></g><defs><clipPath id="a"><path fill="#fff" d="M0 0h24v24H0z"/></clipPath></defs></svg>
